X: 36576
T: Shady Road To Clamper, The
R: polka
M: 2/4
K: Gmajor
|:G/A/|B>^A BG|Bd ed|B>^A Bd|B/A/G AG/A/|
BB/A/ BG|B/c/d eg|e/f/g/e/ d>B|AG G:|
|:D|G>A Bd|gd ed|GG/A/ B/c/d|eB d2|
GG/A/ B/c/d/B/|gd e2|eg/e/ d>B|AG G:|

